icons/wireless-charging-fill.svg

<svg xmlns="http://www.w3.org/2000/svg" width="24" height="24" fill="none"><g clip-path="url(#a)"><g><path fill="#121212" d="M3.929 4.92902L5.343 6.34302C3.895 7.79102 3 9.79102 3 12C3 14.21 3.895 16.21 5.343 17.657L3.93 19.07C2.119 17.261 1 14.761 1 12C1 9.23902 2.12 6.73902 3.929 4.92902ZM20.071 4.92902C21.881 6.73902 23 9.23902 23 12C23 14.761 21.88 17.262 20.071 19.071L18.657 17.657C20.105 16.209 21 14.209 21 12C21 9.79102 20.105 7.79202 18.658 6.34402L20.07 4.93002L20.071 4.92902ZM13 5.00002V11H16L11 19V13H8L13 5.00002ZM6.757 7.75702L8.172 9.17202C7.448 9.89502 7 10.895 7 12C7 13.105 7.448 14.105 8.172 14.828L6.757 16.243C5.672 15.157 5 13.657 5 12C5 10.343 5.672 8.84302 6.757 7.75702ZM17.244 7.75802C18.329 8.84402 19 10.344 19 12C19 13.657 18.328 15.157 17.243 16.243L15.828 14.828C16.552 14.105 17 13.105 17 12C17 10.896 16.553 9.89602 15.83 9.17302L17.244 7.75802Z"/></g></g><defs><clipPath id="a"><rect width="24" height="24" fill="white"/></clipPath></defs></svg>

<svg width="24" height="24" fill="none" xmlns="http://www.w3.org/2000/svg"><g clip-path="url(#a)"><path d="m3.929 4.929 1.414 1.414A7.975 7.975 0 0 0 3 12c0 2.21.895 4.21 2.343 5.657L3.93 19.07A9.961 9.961 0 0 1 1 12a9.973 9.973 0 0 1 2.929-7.071Zm16.142 0A9.968 9.968 0 0 1 23 12a9.97 9.97 0 0 1-2.929 7.071l-1.414-1.414A7.975 7.975 0 0 0 21 12a7.976 7.976 0 0 0-2.342-5.656L20.07 4.93l.001-.001ZM13 5v6h3l-5 8v-6H8l5-8ZM6.757 7.757l1.415 1.415A3.984 3.984 0 0 0 7 12c0 1.105.448 2.105 1.172 2.828l-1.415 1.415A5.985 5.985 0 0 1 5 12c0-1.657.672-3.157 1.757-4.243Zm10.487.001A5.984 5.984 0 0 1 19 12a5.985 5.985 0 0 1-1.757 4.243l-1.415-1.415A3.984 3.984 0 0 0 17 12a3.986 3.986 0 0 0-1.17-2.827l1.414-1.415Z" /></g><defs><clipPath id="a"><path fill="#fff" d="M0 0h24v24H0z"/></clipPath></defs></svg>
